!!!COM: Palestrina, Giovanni Perluigi da
!!!OPR: O admirabile commercium
!!!OTL: Benedictus
**kern	**kern	**kern	**kern
*Itenor	*Itenor	*Icalto	*Icant
!Tenor 2	!Tenor 1	!Altus	!Cantus
*clefGv2	*clefGv2	*clefG2	*clefG2
*k[]	*k[]	*k[]	*k[]
*G:mix	*G:mix	*G:mix	*G:mix
*M4/2	*M4/2	*M4/2	*M4/2
=1	=1	=1	=1
0r	0r	0r	0dd
=2	=2	=2	=2
0r	0r	0r	1dd
.	.	.	[1ee
=3	=3	=3	=3
0r	0r	0g	2ee]
.	.	.	4dd
.	.	.	4cc
.	.	.	4dd
.	.	.	4cc
.	.	.	4b
.	.	.	4a
=4	=4	=4	=4
0r	0r	1g	1b
.	.	[1a	2a
.	.	.	4cc
.	.	.	4dd
=5	=5	=5	=5
0r	0r	2a]	4ee
.	.	.	4ff
.	.	4g	2.ee
.	.	4f	.
.	.	4g	.
.	.	4f	4dd
.	.	4e	[2dd
.	.	4d	.
=6	=6	=6	=6
0r	0r	1e	2dd]
.	.	.	2cc#
.	.	2d	[1dd
.	.	4f	.
.	.	4g	.
=7	=7	=7	=7
0r	0d	4a	2dd]
.	.	4b-	.
.	.	1a	2cc
.	.	.	2b
.	.	[2g	4a
.	.	.	4g
=8	=8	=8	=8
0r	1d	2g]	1a
.	.	2f#	.
.	[1e	[1g	2r
.	.	.	4g
.	.	.	4a
=9	=9	=9	=9
0r	2e]	2g]	4b
.	.	.	4cc
.	4d	4f	2.b
.	4c	4e	.
.	4d	4f	.
.	4c	4e	4a
.	4B	4d	[2a
.	4A	4c	.
=10	=10	=10	=10
0r	1B	1d	2a]
.	.	.	2g
.	2A	1e	4cc
.	.	.	4dd
.	4c	.	4ee
.	4d	.	4ff
=11	=11	=11	=11
0g	4e	2r	1gg
.	4f	.	.
.	2.e	4c	.
.	.	4d	.
.	.	4e	1r
.	4d	4f	.
.	[2c	[2e	.
=12	=12	=12	=12
1g	2c]	2e]	1r
.	2B	2d	.
[1a	2.A	2f	2r
.	.	[2e	4cc
.	4B	.	4dd
=13	=13	=13	=13
2a]	1c	2e]	4ee
.	.	.	4ff
4g	.	2cc	2.ee
4f	.	.	.
4g	2G	2b	.
4f	.	.	4dd
4e	2B	2g	[2dd
4d	.	.	.
=14	=14	=14	=14
1e	1A	1.a	2dd]
.	.	.	2cc#
2d	2d	.	1dd
[2g	2B	2g	.
=15	=15	=15	=15
2g]	2c	1a	1r
2f#	2d	.	.
1g	2G	2b	[1dd
.	[2g	[2b	.
=16	=16	=16	=16
1d	2g]	2b]	1dd]
.	4f#	4a	.
.	4e	4g	.
1r	2f#	2a	1dd
.	2g	2b	.
=17	=17	=17	=17
0r	2.c	2.cc	1.ee
.	4d	4b	.
.	4e	4g	.
.	4f#	4a	.
.	2g	[2b	4dd
.	.	.	4cc
=18	=18	=18	=18
0r	2d	4b]	4dd
.	.	4a	4cc
.	2f	1a	4b
.	.	.	4a
.	1e	.	1b
.	.	2g#	.
=19	=19	=19	=19
1r	0A	0a	2a
.	.	.	4cc
.	.	.	4dd
2r	.	.	4ee
.	.	.	4ff
4c	.	.	[2ee
4d	.	.	.
=20	=20	=20	=20
4e	2r	0r	4ee]
4f	.	.	4dd
2.e	4c	.	2cc
.	4d	.	.
.	4e	.	2b
4d	4f	.	.
[2c	[2e	.	2cc
=21	=21	=21	=21
2c]	2e]	2r	1g
4B	4d	4g	.
4A	4c	4a	.
4G	2d	4b	2r
4A	.	4cc	.
4B	[2g	[2b	[2dd
4c	.	.	.
=22	=22	=22	=22
0d	2g]	2b]	2dd]
.	4f#	4a	2dd
.	4e	4g	.
.	4f#	2a	1dd
.	4g	.	.
.	[2a	2f#	.
=23	=23	=23	=23
1e	4a]	1g	2b
.	4g	.	.
.	1g	.	2cc
1d	.	1a	1dd
.	2f#	.	.
=24	=24	=24	=24
2r	1g	2r	2b
2g	.	2b	2dd
2c	1r	2cc	2ee
2d	.	2a	2ff
=25	=25	=25	=25
2e	0r	2g	1gg
2.c	.	1cc	.
.	.	.	2ee
4d	.	.	.
4e	.	4b	2ee
4f#	.	4a	.
=26	=26	=26	=26
2g	0r	2b	2dd
2e	.	2b	4gg
.	.	.	4ff
2.a	.	2cc	4ee
.	.	.	4dd
.	.	[2f	4cc
4g	.	.	4b
=27	=27	=27	=27
2f	2r	2f]	4a
.	.	.	4b
2e	2c	2g	1cc
1d	2F	2a	.
.	2G	4g	2b
.	.	4f	.
=28	=28	=28	=28
1c	2A	2e	[0cc
.	2.F	2.a	.
1r	.	.	.
.	4G	4g	.
.	4A	2f	.
.	4B	.	.
=29	=29	=29	=29
1r	4c	1e	1cc]
.	4d	.	.
.	1c	.	.
2r	.	1d	2r
2d	2B	.	2dd
=30	=30	=30	=30
2e	2c	0r	2g
2f#	2A	.	2a
1g	1G	.	2b
.	.	.	[2g
=31	=31	=31	=31
2.e	1r	2r	4g]
.	.	.	4a
.	.	2g	4b
4e	.	.	4cc
1d	2r	2a	2.dd
.	2G	2b	.
.	.	.	4ee
=32	=32	=32	=32
1r	2A	2cc	4ff
.	.	.	4ee
.	2B	4b	4gg
.	.	4a	4ff
2r	1c	4g	4ee
.	.	4f	4dd
2c	.	4e	[2ee
.	.	4d	.
=33	=33	=33	=33
2e	2.A	1c	4ee]
.	.	.	4dd
2f#	.	.	1cc
.	4A	.	.
1g	[1G	2d	.
.	.	2e	2b
=34	=34	=34	=34
2r	1G]	2d	1b
2G	.	2g	.
2A	1r	2c	1r
2B	.	2d	.
=35	=35	=35	=35
1.c	2r	2e	2r
.	2g	4c	2g
.	.	4d	.
.	2c	4e	2a
.	.	4f#	.
2B	2d	[2g	2b
=36	=36	=36	=36
2.A	2e	2g]	1.cc
.	4c	2f#	.
4A	4d	.	.
1G	4e	1g	.
.	4f#	.	.
.	[2g	.	2b
=37	=37	=37	=37
0r	2g]	1d	2.a
.	2f#	.	.
.	.	.	4a
.	2.g	2r	1b
.	.	2g	.
.	8f	.	.
.	8e	.	.
=38	=38	=38	=38
2r	2d	2a	1dd
2g	2G	2b	.
2c	1r	2cc	2ee
2d	.	4b	2ff
.	.	4a	.
=39	=39	=39	=39
2e	0r	2g	1gg
2.c	.	1cc	.
.	.	.	2ee
4d	.	.	.
4e	.	4b	2ee
4f#	.	4a	.
=40	=40	=40	=40
2g	2r	2b	2dd
2e	2c	1cc	2g
1d	2F	.	2a
.	2G	2b	2b
=41	=41	=41	=41
2r	2A	1a	0cc
1f	2.F	.	.
.	.	1a	.
.	4G	.	.
4e	4A	.	.
4d	4B	.	.
=42	=42	=42	=42
1.e	1.c	[0g	1.cc
2d	2G	.	2b
=43	=43	=43	=43
0d	0G	0g]	0b
*-	*-	*-	*-
!! Hosanna
**kern	**kern	**kern	**kern	**kern
*Ibass	*Itenor	*Itenor	*Icalto	*Icant
!Bassus	!Tenor 2	!Tenor 1	!Altus	!Cantus
*clefF4	*clefGv2	*clefGv2	*clefG2	*clefG2
*k[]	*k[]	*k[]	*k[]	*k[]
*G:mix	*G:mix	*G:mix	*G:mix	*G:mix
*M4/2	*M4/2	*M4/2	*M4/2	*M4/2
=44	=44	=44	=44	=44
0r	0G	0g	0b	0dd
=45	=45	=45	=45	=45
0r	1d	1f	1.a	1dd
.	1A	1e	.	1cc#
.	.	.	2a	.
=46	=46	=46	=46	=46
0r	1d	1f#	1a	1dd
.	1G	2.g	1b	1dd
.	.	4f	.	.
=47	=47	=47	=47	=47
0r	0c	2e	1.cc	0ee
.	.	2.a	.	.
.	.	4g	.	.
.	.	[2g	2b	.
=48	=48	=48	=48	=48
0D	1d	2g]	0a	[0dd
.	.	4f#	.	.
.	.	4e	.	.
.	2r	1f#	.	.
.	[2d	.	.	.
=49	=49	=49	=49	=49
1G	2d]	2g	1b	1dd]
.	1g	2G	.	.
1D	.	1A	1a	2r
.	2f#	.	.	[2dd
=50	=50	=50	=50	=50
1G	2.g	1B	2r	2dd]
.	.	.	1g	2.gg
.	4f	.	.	.
1C	4e	[1c	.	.
.	4d	.	.	4ff
.	4c	.	[2cc	4ee
.	4B	.	.	4dd
=51	=51	=51	=51	=51
0F	2A	1c]	4cc]	2.cc
.	.	.	4b	.
.	2c	.	4a	.
.	.	.	4g	4b
.	2d	1r	2f	1a
.	[2c	.	2e	.
=52	=52	=52	=52	=52
1G	2c]	2r	1d	2g
.	2B	1g	.	2dd
1C	1c	.	2c	2.ee
.	.	2e	2g	.
.	.	.	.	4dd
=53	=53	=53	=53	=53
0r	1r	2f	2a	2cc
.	.	2g	1g	2b
.	2r	1d	.	1a
.	[2d	.	2f#	.
=54	=54	=54	=54	=54
2r	2d]	1G	1g	2b
1G	2.g	.	.	2dd
.	.	1r	2r	2.gg
.	4f	.	.	.
[2c	4e	.	[2g	.
.	4d	.	.	4ff
=55	=55	=55	=55	=55
4c]	1c	0r	2g]	4ee
4B	.	.	.	4dd
4A	.	.	2.cc	4cc
4G	.	.	.	4b
2.F	2c	.	.	2a
.	.	.	4b	.
.	[2c	.	4a	2cc
4E	.	.	4g	.
=56	=56	=56	=56	=56
2D	2c]	2r	2f	1dd
2G	2B	1G	2d	.
1C	1c	.	4g	1ee
.	.	.	4f	.
.	.	[2g	4e	.
.	.	.	4d	.
=57	=57	=57	=57	=57
0C	2G	4g]	4c	2.gg
.	.	4f	4d	.
.	2.c	4e	4e	.
.	.	4d	4f	4ff
.	.	2c	2g	1ee
.	4B	.	.	.
.	4A	2c	[2a	.
.	4G	.	.	.
=58	=58	=58	=58	=58
0D	2F#	2A	2a]	0dd
.	2G	2B	1g	.
.	1A	1d	.	.
.	.	.	2f#	.
=59	=59	=59	=59	=59
0G	0G	0d	0g	0b
==	==	==	==	==
*-	*-	*-	*-	*-
!!!CDT: 1525/^1526/-1594/2/2
!!!OCY: Italia
!!!AGN: Mass (Parody)
!!!AST: renaissance, vocal
!!!ASW: Motet 1569 (Palestrina)
!!!PWK: Masses, Book 8
!!!RNB: Cadence finals: C,D
!!!YOR: Le Opere Complete, v. 24, p. 52
!!!YOO: Rome, Italy: Fratelli Scalera
!!!END: 1992//
!!!EED: John Miller
!!!YEC: Copyright 2000, John Miller
!!!YEN: United States of America
!!!YEM: Rights to all derivative electronic formats reserved.
!!!YEM: Refer to licensing agreement for further details.
!!!YEM: This file must be accompanied by the licensing agreement.
!!!YEM: A copy of the licensing agreement may be found at http://www.music-cog.ohio-state.edu/HumdrumDatabases/Palestrina/license.txt
!!!EMD: converted to Humdrum by Bret Aarden
